assets/post/images/x86asm1.svg

<svg xmlns="http://www.w3.org/2000/svg" width="1348" height="1238" overflow="hidden"><defs><clipPath id="a"><path d="M176 117h1348v1238H176z"/></clipPath><clipPath id="b"><path d="M436-29h217v694H436z"/></clipPath><clipPath id="c"><path d="M436 105h217v694H436z"/></clipPath><clipPath id="d"><path d="M436 239h217v694H436z"/></clipPath><clipPath id="e"><path d="M436 373h217v694H436z"/></clipPath><clipPath id="f"><path d="M436 507h217v694H436z"/></clipPath><clipPath id="g"><path d="M436 641h217v694H436z"/></clipPath><clipPath id="h"><path d="M436 774h217v694H436z"/></clipPath><clipPath id="i"><path d="M436 908h217v694H436z"/></clipPath></defs><g clip-path="url(#a)" transform="translate(-176 -117)"><path fill="#f8ccb9" fill-rule="evenodd" d="M652.836 251.472h433.074v133.833H652.836Z"/><path fill="#fdefe8" fill-rule="evenodd" d="M1085.91 251.472h216.53v133.833h-216.53Zm216.53 0h216.54v133.833h-216.54Z"/><path fill="#f8ccb9" fill-rule="evenodd" d="M652.836 385.305h433.074v133.834H652.836Z"/><path fill="#fdefe8" fill-rule="evenodd" d="M1085.91 385.305h216.53v133.834h-216.53Zm216.53 0h216.54v133.834h-216.54Z"/><path fill="#f8ccb9" fill-rule="evenodd" d="M652.836 519.139h433.074v133.833H652.836Z"/><path fill="#fdefe8" fill-rule="evenodd" d="M1085.91 519.139h216.53v133.833h-216.53Zm216.53 0h216.54v133.833h-216.54Z"/><path fill="#f8ccb9" fill-rule="evenodd" d="M652.836 652.972h433.074v133.833H652.836Z"/><path fill="#fdefe8" fill-rule="evenodd" d="M1085.91 652.972h216.53v133.833h-216.53Zm216.53 0h216.54v133.833h-216.54Z"/><path fill="#f8ccb9" fill-rule="evenodd" d="M652.836 786.805h866.144v133.834H652.836Zm0 133.834h866.144v133.831H652.836Z"/><path fill="#a32d0f" fill-rule="evenodd" d="M652.836 1054.47h866.144v133.84H652.836Z"/><path fill="#5d1709" fill-rule="evenodd" d="M652.836 1188.31h866.144v133.83H652.836Z"/><path fill="none" stroke="#000" stroke-linejoin="round" stroke-miterlimit="10" stroke-width="4.583" d="M652.836 249.18v1075.25M1085.91 249.18v539.917m216.53-539.917v539.917M650.545 251.472h870.725"/><path fill="none" stroke="#fff" stroke-linejoin="round" stroke-miterlimit="10" stroke-width="4.583" d="M436.301 385.305h216.535"/><path fill="none" stroke="#000" stroke-linejoin="round" stroke-miterlimit="10" stroke-width="4.583" d="M652.836 385.305h868.434"/><path fill="none" stroke="#fff" stroke-linejoin="round" stroke-miterlimit="10" stroke-width="4.583" d="M436.301 519.139h216.535"/><path fill="none" stroke="#000" stroke-linejoin="round" stroke-miterlimit="10" stroke-width="4.583" d="M652.836 519.139h868.434"/><path fill="none" stroke="#fff" stroke-linejoin="round" stroke-miterlimit="10" stroke-width="4.583" d="M436.301 652.972h216.535"/><path fill="none" stroke="#000" stroke-linejoin="round" stroke-miterlimit="10" stroke-width="4.583" d="M652.836 652.972h868.434"/><path fill="none" stroke="#fff" stroke-linejoin="round" stroke-miterlimit="10" stroke-width="4.583" d="M436.301 786.805h216.535"/><path fill="none" stroke="#000" stroke-linejoin="round" stroke-miterlimit="10" stroke-width="4.583" d="M652.836 786.805h868.434"/><path fill="none" stroke="#fff" stroke-linejoin="round" stroke-miterlimit="10" stroke-width="4.583" d="M436.301 920.639h216.535"/><path fill="none" stroke="#000" stroke-linejoin="round" stroke-miterlimit="10" stroke-width="4.583" d="M652.836 920.639h868.434"/><path fill="none" stroke="#fff" stroke-linejoin="round" stroke-miterlimit="10" stroke-width="4.583" d="M436.301 1054.47h216.535"/><path fill="none" stroke="#000" stroke-linejoin="round" stroke-miterlimit="10" stroke-width="4.583" d="M652.836 1054.47h868.434"/><path fill="none" stroke="#fff" stroke-linejoin="round" stroke-miterlimit="10" stroke-width="4.583" d="M436.301 1188.31h216.535"/><path fill="none" stroke="#000" stroke-linejoin="round" stroke-miterlimit="10" stroke-width="4.583" d="M652.836 1188.31h868.434m-2.29-939.13v1075.25"/><path fill="none" stroke="#fff" stroke-linejoin="round" stroke-miterlimit="10" stroke-width="4.583" d="M436.301 1322.14h216.535"/><path fill="none" stroke="#000" stroke-linejoin="round" stroke-miterlimit="10" stroke-width="4.583" d="M652.836 1322.14h868.434"/><text fill="#d74514" font-family="Arial,Arial_MSFontService,sans-serif" font-size="73" font-weight="400" transform="translate(790.023 212)">16bit<tspan x="345.142" y="0">8bit</tspan><tspan x="561.677" y="0">8bit</tspan><tspan x="-487.752" y="428" fill="#000" font-family="Microsoft YaHei,Microsoft YaHei_MSFontService,sans-serif" font-size="50">通用</tspan><tspan x="-538.169" y="489" fill="#000" font-family="Microsoft YaHei,Microsoft YaHei_MSFontService,sans-serif" font-size="50">寄存器</tspan></text><g clip-path="url(#b)"><text font-family="Courier New,Courier New_MSFontService,sans-serif" font-size="83" font-weight="700" transform="translate(470.662 342)">EAX</text></g><text fill="#d74514" font-family="Courier New,Courier New_MSFontService,sans-serif" font-size="83" font-weight="400" transform="translate(820.101 342)">AX<tspan x="324.803" y="0">AH</tspan><tspan x="541.338" y="0">AL</tspan></text><g clip-path="url(#c)"><text font-family="Courier New,Courier New_MSFontService,sans-serif" font-size="83" font-weight="700" transform="translate(470.662 476)">EBX</text></g><text fill="#d74514" font-family="Courier New,Courier New_MSFontService,sans-serif" font-size="83" font-weight="400" transform="translate(820.101 476)">BX<tspan x="324.803" y="0">BH</tspan><tspan x="541.338" y="0">BL</tspan></text><g clip-path="url(#d)"><text font-family="Courier New,Courier New_MSFontService,sans-serif" font-size="83" font-weight="700" transform="translate(470.662 610)">ECX</text></g><text fill="#d74514" font-family="Courier New,Courier New_MSFontService,sans-serif" font-size="83" font-weight="400" transform="translate(820.101 610)">CX<tspan x="324.803" y="0">CH</tspan><tspan x="541.338" y="0">CL</tspan></text><g clip-path="url(#e)"><text font-family="Courier New,Courier New_MSFontService,sans-serif" font-size="83" font-weight="700" transform="translate(470.662 743)">EDX</text></g><text fill="#d74514" font-family="Courier New,Courier New_MSFontService,sans-serif" font-size="83" font-weight="400" transform="translate(820.101 743)">DX<tspan x="324.803" y="0">DH</tspan><tspan x="541.338" y="0">DL</tspan></text><g clip-path="url(#f)"><text font-family="Courier New,Courier New_MSFontService,sans-serif" font-size="83" font-weight="700" transform="translate(470.662 877)">ESI</text></g><g clip-path="url(#g)"><text font-family="Courier New,Courier New_MSFontService,sans-serif" font-size="83" font-weight="700" transform="translate(470.662 1011)">EDI</text></g><text font-family="Microsoft YaHei,Microsoft YaHei_MSFontService,sans-serif" font-size="50" font-weight="400" transform="translate(251.854 1139)">栈指针</text><g clip-path="url(#h)"><text font-family="Courier New,Courier New_MSFontService,sans-serif" font-size="83" font-weight="700" transform="translate(470.662 1145)">ESP</text></g><text font-family="Microsoft YaHei,Microsoft YaHei_MSFontService,sans-serif" font-size="50" font-weight="400" transform="translate(251.854 1273)">基指针</text><g clip-path="url(#i)"><text font-family="Courier New,Courier New_MSFontService,sans-serif" font-size="83" font-weight="700" transform="translate(470.662 1279)">EBP</text></g></g></svg>

<svg width="1348" height="1238" xmlns="http://www.w3.org/2000/svg" xmlns:xlink="http://www.w3.org/1999/xlink" overflow="hidden"><defs><clipPath id="clip0"><rect x="176" y="117" width="1348" height="1238"/></clipPath><clipPath id="clip1"><rect x="436" y="-29" width="217" height="694"/></clipPath><clipPath id="clip2"><rect x="436" y="105" width="217" height="694"/></clipPath><clipPath id="clip3"><rect x="436" y="239" width="217" height="694"/></clipPath><clipPath id="clip4"><rect x="436" y="373" width="217" height="694"/></clipPath><clipPath id="clip5"><rect x="436" y="507" width="217" height="694"/></clipPath><clipPath id="clip6"><rect x="436" y="641" width="217" height="694"/></clipPath><clipPath id="clip7"><rect x="436" y="774" width="217" height="694"/></clipPath><clipPath id="clip8"><rect x="436" y="908" width="217" height="694"/></clipPath></defs><g clip-path="url(#clip0)" transform="translate(-176 -117)"><path d="M652.836 251.472 1085.91 251.472 1085.91 385.305 652.836 385.305Z" fill="#F8CCB9" fill-rule="evenodd"/><path d="M1085.91 251.472 1302.44 251.472 1302.44 385.305 1085.91 385.305Z" fill="#FDEFE8" fill-rule="evenodd"/><path d="M1302.44 251.472 1518.98 251.472 1518.98 385.305 1302.44 385.305Z" fill="#FDEFE8" fill-rule="evenodd"/><path d="M652.836 385.305 1085.91 385.305 1085.91 519.139 652.836 519.139Z" fill="#F8CCB9" fill-rule="evenodd"/><path d="M1085.91 385.305 1302.44 385.305 1302.44 519.139 1085.91 519.139Z" fill="#FDEFE8" fill-rule="evenodd"/><path d="M1302.44 385.305 1518.98 385.305 1518.98 519.139 1302.44 519.139Z" fill="#FDEFE8" fill-rule="evenodd"/><path d="M652.836 519.139 1085.91 519.139 1085.91 652.972 652.836 652.972Z" fill="#F8CCB9" fill-rule="evenodd"/><path d="M1085.91 519.139 1302.44 519.139 1302.44 652.972 1085.91 652.972Z" fill="#FDEFE8" fill-rule="evenodd"/><path d="M1302.44 519.139 1518.98 519.139 1518.98 652.972 1302.44 652.972Z" fill="#FDEFE8" fill-rule="evenodd"/><path d="M652.836 652.972 1085.91 652.972 1085.91 786.805 652.836 786.805Z" fill="#F8CCB9" fill-rule="evenodd"/><path d="M1085.91 652.972 1302.44 652.972 1302.44 786.805 1085.91 786.805Z" fill="#FDEFE8" fill-rule="evenodd"/><path d="M1302.44 652.972 1518.98 652.972 1518.98 786.805 1302.44 786.805Z" fill="#FDEFE8" fill-rule="evenodd"/><path d="M652.836 786.805 1518.98 786.805 1518.98 920.639 652.836 920.639Z" fill="#F8CCB9" fill-rule="evenodd"/><path d="M652.836 920.639 1518.98 920.639 1518.98 1054.47 652.836 1054.47Z" fill="#F8CCB9" fill-rule="evenodd"/><path d="M652.836 1054.47 1518.98 1054.47 1518.98 1188.31 652.836 1188.31Z" fill="#A32D0F" fill-rule="evenodd"/><path d="M652.836 1188.31 1518.98 1188.31 1518.98 1322.14 652.836 1322.14Z" fill="#5D1709" fill-rule="evenodd"/><path d="M652.836 249.18 652.836 1324.43" stroke="#000000" stroke-width="4.58333" stroke-linejoin="round" stroke-miterlimit="10" fill="none" fill-rule="evenodd"/><path d="M1085.91 249.18 1085.91 789.097" stroke="#000000" stroke-width="4.58333" stroke-linejoin="round" stroke-miterlimit="10" fill="none" fill-rule="evenodd"/><path d="M1302.44 249.18 1302.44 789.097" stroke="#000000" stroke-width="4.58333" stroke-linejoin="round" stroke-miterlimit="10" fill="none" fill-rule="evenodd"/><path d="M650.545 251.472 1521.27 251.472" stroke="#000000" stroke-width="4.58333" stroke-linejoin="round" stroke-miterlimit="10" fill="none" fill-rule="evenodd"/><path d="M436.301 385.305 652.836 385.305" stroke="#FFFFFF" stroke-width="4.58333" stroke-linejoin="round" stroke-miterlimit="10" fill="none" fill-rule="evenodd"/><path d="M652.836 385.305 1521.27 385.305" stroke="#000000" stroke-width="4.58333" stroke-linejoin="round" stroke-miterlimit="10" fill="none" fill-rule="evenodd"/><path d="M436.301 519.139 652.836 519.139" stroke="#FFFFFF" stroke-width="4.58333" stroke-linejoin="round" stroke-miterlimit="10" fill="none" fill-rule="evenodd"/><path d="M652.836 519.139 1521.27 519.139" stroke="#000000" stroke-width="4.58333" stroke-linejoin="round" stroke-miterlimit="10" fill="none" fill-rule="evenodd"/><path d="M436.301 652.972 652.836 652.972" stroke="#FFFFFF" stroke-width="4.58333" stroke-linejoin="round" stroke-miterlimit="10" fill="none" fill-rule="evenodd"/><path d="M652.836 652.972 1521.27 652.972" stroke="#000000" stroke-width="4.58333" stroke-linejoin="round" stroke-miterlimit="10" fill="none" fill-rule="evenodd"/><path d="M436.301 786.805 652.836 786.805" stroke="#FFFFFF" stroke-width="4.58333" stroke-linejoin="round" stroke-miterlimit="10" fill="none" fill-rule="evenodd"/><path d="M652.836 786.805 1521.27 786.805" stroke="#000000" stroke-width="4.58333" stroke-linejoin="round" stroke-miterlimit="10" fill="none" fill-rule="evenodd"/><path d="M436.301 920.639 652.836 920.639" stroke="#FFFFFF" stroke-width="4.58333" stroke-linejoin="round" stroke-miterlimit="10" fill="none" fill-rule="evenodd"/><path d="M652.836 920.639 1521.27 920.639" stroke="#000000" stroke-width="4.58333" stroke-linejoin="round" stroke-miterlimit="10" fill="none" fill-rule="evenodd"/><path d="M436.301 1054.47 652.836 1054.47" stroke="#FFFFFF" stroke-width="4.58333" stroke-linejoin="round" stroke-miterlimit="10" fill="none" fill-rule="evenodd"/><path d="M652.836 1054.47 1521.27 1054.47" stroke="#000000" stroke-width="4.58333" stroke-linejoin="round" stroke-miterlimit="10" fill="none" fill-rule="evenodd"/><path d="M436.301 1188.31 652.836 1188.31" stroke="#FFFFFF" stroke-width="4.58333" stroke-linejoin="round" stroke-miterlimit="10" fill="none" fill-rule="evenodd"/><path d="M652.836 1188.31 1521.27 1188.31" stroke="#000000" stroke-width="4.58333" stroke-linejoin="round" stroke-miterlimit="10" fill="none" fill-rule="evenodd"/><path d="M1518.98 249.18 1518.98 1324.43" stroke="#000000" stroke-width="4.58333" stroke-linejoin="round" stroke-miterlimit="10" fill="none" fill-rule="evenodd"/><path d="M436.301 1322.14 652.836 1322.14" stroke="#FFFFFF" stroke-width="4.58333" stroke-linejoin="round" stroke-miterlimit="10" fill="none" fill-rule="evenodd"/><path d="M652.836 1322.14 1521.27 1322.14" stroke="#000000" stroke-width="4.58333" stroke-linejoin="round" stroke-miterlimit="10" fill="none" fill-rule="evenodd"/><text fill="#D74514" font-family="Arial,Arial_MSFontService,sans-serif" font-weight="400" font-size="73" transform="matrix(1 0 0 1 790.023 212)">16bit<tspan font-size="73" x="345.142" y="0">8bit</tspan><tspan font-size="73" x="561.677" y="0">8bit</tspan><tspan fill="#000000" font-family="Microsoft YaHei,Microsoft YaHei_MSFontService,sans-serif" font-size="50" x="-487.752" y="428">通用</tspan><tspan fill="#000000" font-family="Microsoft YaHei,Microsoft YaHei_MSFontService,sans-serif" font-size="50" x="-538.169" y="489">寄存器</tspan></text><g clip-path="url(#clip1)"><text font-family="Courier New,Courier New_MSFontService,sans-serif" font-weight="700" font-size="83" transform="matrix(1 0 0 1 470.662 342)">EAX</text></g><text fill="#D74514" font-family="Courier New,Courier New_MSFontService,sans-serif" font-weight="400" font-size="83" transform="matrix(1 0 0 1 820.101 342)">AX<tspan font-size="83" x="324.803" y="0">AH</tspan><tspan font-size="83" x="541.338" y="0">AL</tspan></text><g clip-path="url(#clip2)"><text font-family="Courier New,Courier New_MSFontService,sans-serif" font-weight="700" font-size="83" transform="matrix(1 0 0 1 470.662 476)">EBX</text></g><text fill="#D74514" font-family="Courier New,Courier New_MSFontService,sans-serif" font-weight="400" font-size="83" transform="matrix(1 0 0 1 820.101 476)">BX<tspan font-size="83" x="324.803" y="0">BH</tspan><tspan font-size="83" x="541.338" y="0">BL</tspan></text><g clip-path="url(#clip3)"><text font-family="Courier New,Courier New_MSFontService,sans-serif" font-weight="700" font-size="83" transform="matrix(1 0 0 1 470.662 610)">ECX</text></g><text fill="#D74514" font-family="Courier New,Courier New_MSFontService,sans-serif" font-weight="400" font-size="83" transform="matrix(1 0 0 1 820.101 610)">CX<tspan font-size="83" x="324.803" y="0">CH</tspan><tspan font-size="83" x="541.338" y="0">CL</tspan></text><g clip-path="url(#clip4)"><text font-family="Courier New,Courier New_MSFontService,sans-serif" font-weight="700" font-size="83" transform="matrix(1 0 0 1 470.662 743)">EDX</text></g><text fill="#D74514" font-family="Courier New,Courier New_MSFontService,sans-serif" font-weight="400" font-size="83" transform="matrix(1 0 0 1 820.101 743)">DX<tspan font-size="83" x="324.803" y="0">DH</tspan><tspan font-size="83" x="541.338" y="0">DL</tspan></text><g clip-path="url(#clip5)"><text font-family="Courier New,Courier New_MSFontService,sans-serif" font-weight="700" font-size="83" transform="matrix(1 0 0 1 470.662 877)">ESI</text></g><g clip-path="url(#clip6)"><text font-family="Courier New,Courier New_MSFontService,sans-serif" font-weight="700" font-size="83" transform="matrix(1 0 0 1 470.662 1011)">EDI</text></g><text font-family="Microsoft YaHei,Microsoft YaHei_MSFontService,sans-serif" font-weight="400" font-size="50" transform="matrix(1 0 0 1 251.854 1139)">栈指针</text><g clip-path="url(#clip7)"><text font-family="Courier New,Courier New_MSFontService,sans-serif" font-weight="700" font-size="83" transform="matrix(1 0 0 1 470.662 1145)">ESP</text></g><text font-family="Microsoft YaHei,Microsoft YaHei_MSFontService,sans-serif" font-weight="400" font-size="50" transform="matrix(1 0 0 1 251.854 1273)">基指针</text><g clip-path="url(#clip8)"><text font-family="Courier New,Courier New_MSFontService,sans-serif" font-weight="700" font-size="83" transform="matrix(1 0 0 1 470.662 1279)">EBP</text></g></g></svg>
